X:124
T:Steirer, Privatarchiv Hofer, Sammelgut Khals Leopold 10/8
C:traditionell
R:Steirer
B:"Hundert Steirer aus dem Ausseerland", F .Hofer, Steirisches Volksliedwerk, Graz, undated,
N:im buch in A, nr. 15
S:Privatarchiv Hofer, Sammelgut Khals Leopold 10/8, Aussee, 1883-1968
A:Aussee, Salzkammergut
M:3/4
L:1/8
K:C
V:1
%violino 1mo
eg |\
c'bagfe | agfedc | Bdgd g2 | cege g2 |\
c'bagfe | agfedc | BdgdBg | c4 :|
V:2
%violino 2do
gc' |\
e'd'c'bag | c'bagfe | fgbg b2 | egc'g c'2 |\
e'd'c'bag | c'bagfe | fgbgfa | c2 z2 :|
